static/images/svgs/code-icon.svg

<?xml version="1.0" encoding="UTF-8"?>
<svg xmlns="http://www.w3.org/2000/svg" xmlns:xlink="http://www.w3.org/1999/xlink" width="64px" height="px" viewBox="0 0 64 64" version="1.1">
<g id="surface1">
<path style=" stroke:none;fill-rule:nonzero;fill:rgb(93.72549%,26.666667%,26.666667%);fill-opacity:1;" d="M 52 57 L 12 57 C 9.238281 56.996094 7.003906 54.761719 7 52 L 7 50 C 7 49.449219 7.449219 49 8 49 L 56 49 C 56.550781 49 57 49.449219 57 50 L 57 52 C 56.996094 54.761719 54.761719 56.996094 52 57 Z M 9 51 L 9 52 C 9 53.65625 10.34375 55 12 55 L 52 55 C 53.65625 55 55 53.65625 55 52 L 55 51 Z M 9 51 "/>
<path style=" stroke:none;fill-rule:nonzero;fill:rgb(93.72549%,26.666667%,26.666667%);fill-opacity:1;" d="M 36 54 L 28 54 C 27.449219 54 27 53.550781 27 53 L 27 50 C 27 49.449219 27.449219 49 28 49 C 28.550781 49 29 49.449219 29 50 L 29 52 L 35 52 L 35 50 C 35 49.449219 35.449219 49 36 49 C 36.550781 49 37 49.449219 37 50 L 37 53 C 37 53.550781 36.550781 54 36 54 Z M 36 54 "/>
<path style=" stroke:none;fill-rule:nonzero;fill:rgb(93.72549%,26.666667%,26.666667%);fill-opacity:1;" d="M 54 51 L 10 51 C 9.449219 51 9 50.550781 9 50 L 9 16 C 9 15.449219 9.449219 15 10 15 L 18 15 C 18.550781 15 19 15.449219 19 16 C 19 16.550781 18.550781 17 18 17 L 11 17 L 11 49 L 53 49 L 53 17 L 50 17 C 49.449219 17 49 16.550781 49 16 C 49 15.449219 49.449219 15 50 15 L 54 15 C 54.550781 15 55 15.449219 55 16 L 55 50 C 55 50.550781 54.550781 51 54 51 Z M 54 51 "/>
<path style=" stroke:none;fill-rule:nonzero;fill:rgb(93.72549%,26.666667%,26.666667%);fill-opacity:1;" d="M 46 44 L 18 44 C 17.449219 44 17 43.550781 17 43 L 17 8 C 17 7.449219 17.449219 7 18 7 L 46 7 C 46.550781 7 47 7.449219 47 8 L 47 43 C 47 43.550781 46.550781 44 46 44 Z M 19 42 L 45 42 L 45 9 L 19 9 Z M 19 42 "/>
<path style=" stroke:none;fill-rule:nonzero;fill:rgb(93.72549%,26.666667%,26.666667%);fill-opacity:1;" d="M 27 24 C 26.734375 24 26.480469 23.894531 26.292969 23.707031 L 22.292969 19.707031 C 21.902344 19.316406 21.902344 18.683594 22.292969 18.292969 L 26.292969 14.292969 C 26.683594 13.914062 27.308594 13.917969 27.695312 14.304688 C 28.082031 14.691406 28.085938 15.316406 27.707031 15.707031 L 24.414062 19 L 27.707031 22.292969 C 27.992188 22.578125 28.078125 23.007812 27.921875 23.382812 C 27.769531 23.757812 27.40625 24 27 24 Z M 27 24 "/>
<path style=" stroke:none;fill-rule:nonzero;fill:rgb(93.72549%,26.666667%,26.666667%);fill-opacity:1;" d="M 37 24 C 36.59375 24 36.230469 23.757812 36.078125 23.382812 C 35.921875 23.007812 36.007812 22.578125 36.292969 22.292969 L 39.585938 19 L 36.292969 15.707031 C 35.914062 15.316406 35.917969 14.691406 36.304688 14.304688 C 36.691406 13.917969 37.316406 13.914062 37.707031 14.292969 L 41.707031 18.292969 C 42.097656 18.683594 42.097656 19.316406 41.707031 19.707031 L 37.707031 23.707031 C 37.519531 23.894531 37.265625 24 37 24 Z M 37 24 "/>
<path style=" stroke:none;fill-rule:nonzero;fill:rgb(93.72549%,26.666667%,26.666667%);fill-opacity:1;" d="M 30 24 C 29.652344 24 29.332031 23.820312 29.148438 23.527344 C 28.96875 23.230469 28.949219 22.863281 29.105469 22.554688 L 33.105469 14.554688 C 33.351562 14.058594 33.953125 13.859375 34.449219 14.105469 C 34.941406 14.351562 35.144531 14.953125 34.894531 15.445312 L 30.894531 23.445312 C 30.726562 23.785156 30.378906 24 30 24 Z M 30 24 "/>
<path style=" stroke:none;fill-rule:nonzero;fill:rgb(93.72549%,26.666667%,26.666667%);fill-opacity:1;" d="M 37 29 L 27 29 C 26.449219 29 26 28.550781 26 28 C 26 27.449219 26.449219 27 27 27 L 37 27 C 37.550781 27 38 27.449219 38 28 C 38 28.550781 37.550781 29 37 29 Z M 37 29 "/>
<path style=" stroke:none;fill-rule:nonzero;fill:rgb(93.72549%,26.666667%,26.666667%);fill-opacity:1;" d="M 37 34 L 27 34 C 26.449219 34 26 33.550781 26 33 C 26 32.449219 26.449219 32 27 32 L 37 32 C 37.550781 32 38 32.449219 38 33 C 38 33.550781 37.550781 34 37 34 Z M 37 34 "/>
<path style=" stroke:none;fill-rule:nonzero;fill:rgb(93.72549%,26.666667%,26.666667%);fill-opacity:1;" d="M 37 39 L 27 39 C 26.449219 39 26 38.550781 26 38 C 26 37.449219 26.449219 37 27 37 L 37 37 C 37.550781 37 38 37.449219 38 38 C 38 38.550781 37.550781 39 37 39 Z M 37 39 "/>
</g>
</svg>

<svg xmlns="http://www.w3.org/2000/svg" viewBox="0 0 64 64"> <defs> <style> .fill { fill: #ef4444; } </style> </defs> <g id="_2" data-name="2"> <path class="fill" d="M52,57H12a5.006,5.006,0,0,1-5-5V50a1,1,0,0,1,1-1H56a1,1,0,0,1,1,1v2A5.006,5.006,0,0,1,52,57ZM9,51v1a3,3,0,0,0,3,3H52a3,3,0,0,0,3-3V51Z" /> <path class="fill" d="M36,54H28a1,1,0,0,1-1-1V50a1,1,0,0,1,2,0v2h6V50a1,1,0,0,1,2,0v3A1,1,0,0,1,36,54Z" /> <path class="fill" d="M54,51H10a1,1,0,0,1-1-1V16a1,1,0,0,1,1-1h8a1,1,0,0,1,0,2H11V49H53V17H50a1,1,0,0,1,0-2h4a1,1,0,0,1,1,1V50A1,1,0,0,1,54,51Z" /> <path class="fill" d="M46,44H18a1,1,0,0,1-1-1V8a1,1,0,0,1,1-1H46a1,1,0,0,1,1,1V43A1,1,0,0,1,46,44ZM19,42H45V9H19Z" /> <path class="fill" d="M27,24a1,1,0,0,1-.707-.293l-4-4a1,1,0,0,1,0-1.414l4-4a1,1,0,0,1,1.414,1.414L24.414,19l3.293,3.293A1,1,0,0,1,27,24Z" /> <path class="fill" d="M37,24a1,1,0,0,1-.707-1.707L39.586,19l-3.293-3.293a1,1,0,0,1,1.414-1.414l4,4a1,1,0,0,1,0,1.414l-4,4A1,1,0,0,1,37,24Z" /> <path class="fill" d="M30,24a1,1,0,0,1-.894-1.447l4-8a1,1,0,1,1,1.79.894l-4,8A1,1,0,0,1,30,24Z" /> <path class="fill" d="M37,29H27a1,1,0,0,1,0-2H37a1,1,0,0,1,0,2Z" /> <path class="fill" d="M37,34H27a1,1,0,0,1,0-2H37a1,1,0,0,1,0,2Z" /> <path class="fill" d="M37,39H27a1,1,0,0,1,0-2H37a1,1,0,0,1,0,2Z" /> </g> </svg>
